X:537
T:Wells Waltz
M:3/4
K:D
B2|A2 d2 f2|d'2 c'2 b2|a2 f2 d2|A6|A6|B4 A2|
c6|c4 B2|A2 d2 f2|d'2 c'2 b2|a2 f2 d2|A6|A6|e4 f2|d6|d4:|
e2|f4 f2|f2 e2 d2|g4 g2|g6|g4 g2|g2 f2 g2|
b6|a6|b4 b2|b2 a2 f2|d6|f6|B6|c3 A B>c|d6|d4:|


